X: 10603
T: THE MARQUIS OF BOWMONT'S REEL
C: By Marshall
R: reel
B: K\"ohler's Violin Repository, v.1, 1885 p.60 #3
F: http://www.archive.org/details/klersviolinrepos01edin
Z: 2011 John Chambers <jc:trillian.mit.edu>
M: C|
L: 1/8
K: Bb
uB |\
FBEB DBFB | Dd (e/d/c/B/) cC-CB | DBFB EBDB | Fd (d/c/B/A/) BB,-B, :|
uB |\
fB (e/d/c/B/) (fB)dB | cF (B/A/G/F/) (cF)AF | fB (e/d/c/B/) (fB)dB | F(dAc) BB,B,B |
fB (e/d/c/B/) (fB)dB | cF (B/A/G/F/) (cF)AF | (fB) (gB) (aB) (bB) | dB (d/c/B/A/) "^D.C."BB,-"^Fine"B, |]

%%sep 2 1 500

